svgs/tiktok_plugin.svg

<svg width="192" height="192" viewBox="0 0 192 192" fill="none" xmlns="http://www.w3.org/2000/svg">
<path d="M20 113.327V94.5M20 94.5V80.0767C20 80.0767 34.5 79 35.8333 80.0767C40.0025 83.4436 39.8151 90.2124 35.8333 93.799C34.5 95 20 94.5 20 94.5ZM49.5556 80.0767V113.327H66.9722M75.4167 80.0767V109.105C75.5487 116.792 94.0117 116.662 93.8889 109.105V80.0767M140.861 80.0767V113.327M153.528 113.327V80.0767L172 113.327V80.0767M129.778 84.299C127.139 77.4378 113.082 78.0463 107.611 84.299C103.917 88.5212 101.806 92.7434 103.917 101.716C106.028 110.688 116.583 117.021 127.139 112.799C132.618 110.607 135.056 101.188 129.25 96.9656C128.722 96.5818 117.111 96.9656 117.111 96.9656" stroke="black" stroke-width="8" stroke-linecap="round" stroke-linejoin="round"/>
</svg>

<svg width="192" height="192" viewBox="0 0 192 192" fill="none" xmlns="http://www.w3.org/2000/svg"><path d="M20 113.327V94.5m0 0V80.077s14.5-1.077 15.833 0c4.17 3.367 3.982 10.135 0 13.722C34.5 95 20 94.5 20 94.5Zm29.556-14.423v33.25h17.416m8.445-33.25v29.028c.132 7.687 18.595 7.557 18.472 0V80.077m46.972 0v33.25m12.667 0v-33.25L172 113.327v-33.25m-42.222 4.222c-2.639-6.861-16.696-6.253-22.167 0-3.694 4.222-5.805 8.444-3.694 17.417 2.111 8.972 12.666 15.305 23.222 11.083 5.479-2.192 7.917-11.611 2.111-15.833-.528-.384-12.139 0-12.139 0" stroke="#000" stroke-width="8" stroke-linecap="round" stroke-linejoin="round"/></svg>
